X:1
T:Stille Natt
T:Stille Natt
T:Erik Hillestad
T:Franz Gruber
T:Franz Gruber
Z:Erik Hillestad
Z:Franz Gruber
L:1/8
Q:1/4=80
M:6/8
K:A
V:1 treble nm="Piano" snm="Pno."
V:1
 (E>F)E C3 | E>FE C3 | B2 B G2 G | A2 A E3 | F2 F A>GF | E>FE C3 | F2 F A>GF | E>FE C3 | %8
w: Stil- * le natt,|hel- li- ge natt.|Alt har søvn og|mør- ke tatt.|Tro- fast vå- ker de|hel- li- ge to.|Var- somt vug- ger de|bar- net til ro.|
w: Stil- * le natt,|hel- li- ge natt.|Bar- net er vår|stør- ste skatt.|Hyr- der vek- kes av|gå- te- full klang,|nat- ten fyl- les av|eng- len- es sang:|
w: Stil- * le natt,|hel- li- ge natt.|Al- dri ble vår|jord for- latt.|Him- len smi- ler fra|barnets _ _ munn,|kom- mer nær i en|frel- sen- de stund.|
 B>BB d>BG | (A3 c2) z | A>EC E>DB, | A,3- A,2 z :| %12
w: jord- en tar him- len i|favn, _|jor- den tar him- len i|favn. _|
w: Kris- tus, vår frel- ser er|født! _|Kris- tus vår frel- ser er|født! _|
w: Vi- er Guds frem- tid til|vår. _|Vi- er Guds frem- tid til|vår. _|

